X: 7087
T: Christina's Dream
R: jig
M: 6/8
K: Amajor
|:A,CE A,CE|A,CE A,CE|DFA AFD|AFD AFD|
EGB EGB|EGB EGB|A,CE A,CE|1 AEC A,3:|2 AEC A,CE:|
|:A2 A AEC|A,3 A,CE|A2 A AGA|BGE E2 F|
GFE GFE|GFE FED|EFE DCB,|1 CA,A, A,CE:|2 CA,A, A,3|

